X:11
T:Chantez un chant nouveau - Z97-23
C:J.F. Michel - Y. Gardette
M:C|
L:1/4
K:D
"Re"DD FG/A/-|"Fa#m"AA "Sol"BB/A/-|"La"A2 "Si"BF|"Mim"G2 "La"A2|
"Re"A2 DD|"Sol"GG G/F E/-|"La"EE/z/ "Sol"FG|"Re"F2 "La"E2|"Re"D2z2||
